X: 399
T: Bir Nigâh Et Ne Olur
C: Şekerci Cemil Bey
O: Turkey
F: http://compmusic.upf.edu/node/140
N: hicaz--sarki--agiraksak--bir_nigah_et--sekerci_cemil_bey
N: makam= hicaz
N: form= sarki
N: usul= agiraksak = 9/4
M: 9/4
L: 1/16
K: C _7/8B ^f ^c 
Q: 1/4=84
%%MIDI tuningsystem comma53
A3B c2d2 c2B2 A2G2 c2de =fedc dd=c=B AGFE D4  | 
w:  ARANAĞME  | 
c2d2 e2f2 g3f e2g2 =f3e eddc d4 GABc d4  | \
w:   | 
c2d2 e2f2 g3f e2g2 =f3e d2f2 e2d2 c2B2 A2G2  | 
w:   | 
A2B4A2 (3efga2 (3g=fed2 c3B cBBA A3f edcB A2G2  | 
w:   | 
A3B c2d2 c2B2 A2G2 c2de =fedc dd=c=B AGFE D4  | 
w:  ARANAĞME  | 
c2d2 e2f2 g3f e2g2 =f3e eddc d4 GABc d4  | \
w:   | 
c2d2 e2f2 g3f e2g2 =f3e d2f2 e2d2 c2B2 A2G2  | 
w:   | 
A2B4A2 (3efga2 (3g=fed2 c3B cBBA A3f edcB A4  | 
w:   | 
z8 z2d4e2 e8 =f3e d2e2 f2g2  | e2d2 c2B2 A4 e2ed c3B cBBA A6G2 A2BA  | 
w:  Bir  ni gâh_ et   |  *  *  *  *  *  ne  o *  lur  *  *  *  *  *  ha  | 
A12 a2ag f3e d4 e2f2 g2a2 =b2a2  | \
w:  *  li me  *  ey  *  *  gon  | 
a2g4f2 f2e2 g2fe e8 e2=fg fed2 c2d2  | 
w:  *  *  *  *  *  ca  de *  hen  SAZ  | 
e4 ABcd e2d4e2 e8 =f3e d4 a4  | a2g2 =f2e2 d4 e2f2 e2d2 c2B2 c4 d4 c2B2  | 
w:  *  *  *  *  *  *  Göz  göz_ ol du   |  *  *  *  *  *  yü re ğim  *  *  *  göz  | 
A6=B2 =c4 c2c2 c2B4A2 A3G F3E D4  | \
w:  *  *  *  le ri nin  *  *  der  | 
B3A G2A2 B2c4BA9 e2=fg fed2 c2d2  | 
w:  din *  *  *  *  *  *  *  SAZ  | 
e4 ABcd e2d4e2 e8 =f3e d4 a4  | a2g2 =f2e2 d4 e2f2 e2d2 c2B2 c4 d4 c2B2  | 
w:  *  *  *  *  *  *  Göz  göz_ ol du   |  *  *  *  *  *  yü re ğim  *  *  *  göz  | 
A6=B2 =c4 c2c2 c2B4A2 A3G F3E D4  | \
w:  *  *  *  le ri nin  *  *  der  | 
B3A G2A2 B2c4BA9 aga=b a2g2 f2g2  | 
w:  din *  *  *  *  *  *  *  SAZ  | 
a4 defg a4 f2g2 a8 a12  | a2g2 f2e2 d4 f2g2 a2g2 a2=ba a6g2 a2ba  | 
w:  *  *  *  *  *  *  Ni ye  bak tım   |  *  *  *  *  *  ni ye  gör *  *  *  *  düm   | 
a8 z4 a2ag f3e d4 e2f2 g2a2 =b2a2  | \
w:  *  ni ye  *  sev *  *  dim   | 
a2g4f2 f2e2 g2fe e8 e2=fg fed2 c2d2  | 
w:  *  *  *  *  *  se ni  *  ben  SAZ  | 
e4 ABcd e2d4e2 e8 =f3e d4 a4  | a2g2 =f2e2 d4 e2f2 e2d2 c2B2 c4 d4 c2B2  | 
w:  *  *  *  *  *  *  Göz  göz_ ol du   |  *  *  *  *  *  yü re ğim  *  *  *  göz  | 
A6=B2 =c4 c2c2 c2B4A2 A3G F3E D4  | \
w:  *  *  *  le ri nin  *  *  der  | 
B3A G2A2 B2c4BA9 |
w:  din  | 


